packages/dnb-ui-lib/assets/icons/flying_money_medium.svg

<svg width="24" height="24" viewBox="0 0 24 24" fill="none" xmlns="http://www.w3.org/2000/svg">
<path d="M5.74463 10.8762C8.01051 11.2758 10.166 9.79648 10.5584 7.57099C10.9021 5.62188 9.77967 3.74741 7.97185 3.04398L1.56275 1L1.49171 1.40288C1.21708 2.96039 2.27962 4.44962 3.8668 4.72948L5.96402 5.10177M3.47529 7.42978C3.18758 9.06147 4.27624 10.6173 5.90877 10.9051M6.42971 7.95075L3.96769 7.51663C2.60866 7.27699 1.68058 6.09056 1.89638 4.86669L2.02662 4.12808M12.7235 18.6662C12.3239 16.4003 13.8032 14.2449 16.0287 13.8525C17.9778 13.5088 19.8523 14.6312 20.5557 16.439L22.5997 22.8481L22.1968 22.9191C20.6393 23.1937 19.1501 22.1312 18.8702 20.544L18.4979 18.4468M16.1699 20.9355C14.5382 21.2232 12.9824 20.1346 12.6945 18.5021M15.649 17.9811L16.0831 20.4431C16.3227 21.8022 17.5092 22.7302 18.733 22.5144L19.4716 22.3842M10.6923 6.65977L15.2885 2.80304C15.7116 2.44804 16.3424 2.50322 16.6974 2.9263L21.1969 8.28861C21.5519 8.71168 21.4967 9.34244 21.0736 9.69744L16.4774 13.5542M12.6294 17.0702L8.47734 20.5542C8.05427 20.9092 7.42351 20.854 7.06851 20.4309L2.569 15.0686C2.214 14.6455 2.26918 14.0148 2.69226 13.6598L5.88295 10.9825" stroke="black" stroke-width="1.5" stroke-linecap="round" stroke-linejoin="round"/>
<path d="M10.4897 10.4099L9.66438 11.0973L9.77054 13.203L8.69157 11.9074L8 12.4834L10.6878 15.7107L11.3794 15.1348L10.5615 14.1527L10.5547 13.8539L12.3061 14.363L13.1775 13.6373L10.5388 13.0004L10.4897 10.4099Z" fill="black"/>
<path d="M15.269 11.8954L16.0712 11.2273L14.2938 10.49C14.5966 10.0192 14.5583 9.50447 14.1629 9.02959C13.6406 8.40257 12.9316 8.37624 12.2354 8.95604L10.9491 10.0273L13.6369 13.2547L14.3285 12.6787L13.2917 11.4339L13.6375 11.1459L15.269 11.8954ZM12.1014 10.0046L12.5855 9.60145C12.9359 9.30963 13.2125 9.31355 13.4621 9.61323C13.7116 9.91291 13.6655 10.1856 13.3151 10.4774L12.831 10.8806L12.1014 10.0046Z" fill="black"/>
</svg>

<svg width="24" height="24" viewBox="0 0 24 24" fill="none" xmlns="http://www.w3.org/2000/svg"><path d="M5.745 10.876c2.266.4 4.421-1.08 4.813-3.305.344-1.95-.778-3.824-2.586-4.527L1.562 1l-.07.403C1.217 2.96 2.28 4.45 3.867 4.729l2.097.373M3.475 7.43a3 3 0 002.434 3.475m.52-2.954l-2.461-.434c-1.36-.24-2.287-1.426-2.072-2.65l.13-.739m10.697 14.538c-.4-2.266 1.08-4.421 3.306-4.814 1.949-.343 3.823.78 4.527 2.587l2.044 6.41-.403.07c-1.558.275-3.047-.788-3.327-2.375l-.372-2.097m-2.328 2.489a3 3 0 01-3.476-2.434m2.955-.52l.434 2.461c.24 1.36 1.426 2.287 2.65 2.071l.739-.13M10.692 6.66l4.597-3.857a1 1 0 011.408.123l4.5 5.363a1 1 0 01-.123 1.408l-4.597 3.857M12.63 17.07l-4.152 3.484a1 1 0 01-1.408-.123l-4.5-5.362a1 1 0 01.123-1.41l3.191-2.677" stroke="#000" stroke-width="1.5" stroke-linecap="round" stroke-linejoin="round"/><path d="M10.49 10.41l-.826.687.107 2.106-1.08-1.296-.691.576 2.688 3.228.691-.576-.817-.982-.007-.3 1.751.51.872-.726-2.64-.637-.048-2.59zm4.779 1.485l.802-.668-1.777-.737c.303-.47.264-.986-.131-1.46-.522-.627-1.231-.654-1.928-.074l-1.286 1.071 2.688 3.228.691-.576-1.036-1.245.345-.288 1.632.75zm-3.168-1.89l.484-.404c.35-.291.627-.287.877.012.25.3.204.573-.147.864l-.484.404-.73-.876z" fill="#000"/></svg>
